X: 100
T: Polska efter Johan Ersson och Johan Olsson
O: S\"odermanland, Sweden
R: polska
%S: s:3 b:16(5+6+5)
S: http://folksweden.com/files/100-Ersson-Olsson.pdf (Tim Rued)
Z: 2021 John Chambers <jc:trillian.mit.edu>
M: 3/4
L: 1/8
K: Dm
|:\
d>^c Ac e2 | fe ^ce g2 | gf/g/ af d>f | e>^c A2 A2 || d>^c Ac e2 |
fe ^ce g2 | gf/g/ af d>f | e>^c d2 "^+"Dz :: aa/a/ (3aaa aa | ba a3 e | fg (3aba gf |
ef de fg || aa/a/ (3aaa aa | ba a3 e | fg (3aba gf | ef d2 "^+"Dz :|
